X: 38
T:Captain White
% Nottingham Music Database
P:AAB
S:Kevin Briggs, via EF
M:6/8
K:D
P:A
A|"D"DFA d2f|"A"edc "G"B2d|"D"A2d F2B|"Em"AGF "A7"E2A|
"D"DFA d2f|"A"edc "G"B2d|"D"A2d "Bm"F2B|"A7"ABc "D"d2:|
P:B
f|"A"e^de A2f|"A"e^de a2f|"Bm"efe "E7"dcB|"A"A2B "E7"c2f|"A"e^de A2f|
"A"e^de a2f|"Bm"efe "E7"dcB|"A7"ABA GFE|"D"D2f fef|"D"d2A A^GA|
"D"D2f fef|"G"gfe "A7"ecA|"D"D2f fef|"D"d2A A^GA|"Em"Bed "A7"cBc|"D"d3 -d2||<end>
<start>
